X:257
T:Fisher's Rant, The
R:Strathspey
B:The Athole Collection
M:C
L:1/8
K:G
F|:G>D C/B,/A,/G,/ B,<D D>G|E>A,F>A, G>A,F>A,|
G>D C/B,/A,/G,/ B,<D D>G|1 (3EFG (3ABc (3BAG (3FED:|2
E>A G/F/E/D/ G2G||
B|d>BA>G g>dB>G|(3cec (3BdB A>Bc>e|d>BA>G g>dB>G|
(3ced (3cBA (3GDC (3 B,A,G,|d>BA>G g>d B<G|(3cec (3BdB A>Bc>e|
(3dcB (3ABF (3GFE (3DCB,|(3CDE (3DEF (3GDC (3B,A,G,||

